assets/images/img-table-empty-records.svg

<svg width="284" height="242" viewBox="0 0 284 242" fill="none" xmlns="http://www.w3.org/2000/svg">
<path d="M213.156 79.0456C277.685 79.0456 298.131 90.8996 274.495 114.606C239.041 150.167 190.285 143.801 201.721 174.76C213.156 205.72 319.85 172.514 267.469 218.971C215.088 265.43 -35.6999 235.257 22.7821 184.625C81.2641 133.994 89.7821 111.685 64.2331 111.685C38.6851 111.685 -14.0709 96.4886 37.4121 47.5506C88.8941 -1.38742 210.878 -6.50142 189.717 23.9506C168.556 54.4036 141.69 67.4406 168.556 73.2436C186.466 77.1116 201.333 79.0456 213.156 79.0456Z" fill="url(#paint0_linear_501_11643)"/>
<g filter="url(#filter0_i_501_11643)">
<path d="M213.156 79.0456C277.685 79.0456 298.131 90.8996 274.495 114.606C239.041 150.167 190.285 143.801 201.721 174.76C213.156 205.72 319.85 172.514 267.469 218.971C215.088 265.43 -35.6999 235.257 22.7821 184.625C81.2641 133.994 89.7821 111.685 64.2331 111.685C38.6851 111.685 -14.0709 96.4886 37.4121 47.5506C88.8941 -1.38742 210.878 -6.50142 189.717 23.9506C168.556 54.4036 141.69 67.4406 168.556 73.2436C186.466 77.1116 201.333 79.0456 213.156 79.0456Z" fill="#E9EAED"/>
</g>
<path fill-rule="evenodd" clip-rule="evenodd" d="M40.9071 28.1159C46.6585 37.65 11.8364 67.8224 3.16153 54.2748C-5.51255 40.7283 35.1557 18.5817 40.9071 28.1159Z" fill="#F3F3F3"/>
<path fill-rule="evenodd" clip-rule="evenodd" d="M252.062 161.111C251.967 187.857 208.854 184.027 207.068 168.176C205.28 152.325 252.157 134.366 252.062 161.111Z" fill="#F1F1F1"/>
<g filter="url(#filter1_d_501_11643)">
<path d="M135.5 216C187.691 216 230 209.956 230 202.5C230 195.044 187.691 189 135.5 189C83.3091 189 41 195.044 41 202.5C41 209.956 83.3091 216 135.5 216Z" fill="#E9EAED"/>
</g>
<path fill-rule="evenodd" clip-rule="evenodd" d="M149.24 127.155H254.046C256.76 127.155 258.687 128.848 258.351 130.938C258.303 131.238 258.209 131.537 258.07 131.828L222.811 206L46.7001 202.884C44.8901 202.884 43.6061 201.754 43.8301 200.362C43.8621 200.162 43.9251 199.962 44.0171 199.768L78.4811 127.155L81.3981 121.018C83.2581 117.106 89.1651 113.936 94.5931 113.936H145.696C151.124 113.936 154.016 117.106 152.157 121.018L149.24 127.155Z" fill="url(#paint1_linear_501_11643)"/>
<path fill-rule="evenodd" clip-rule="evenodd" d="M136.555 103.306H246.337C246.889 103.306 247.337 103.754 247.337 104.306C247.337 104.386 247.327 104.464 247.309 104.541L222.811 206H53.7021C48.1791 206 43.7021 201.523 43.7021 196C43.7021 195.21 43.7961 194.421 43.9821 193.653L65.7951 103.305L67.7251 95.3109C68.9551 90.2169 74.3531 86.0869 79.7801 86.0869H130.884C136.312 86.0869 139.714 90.2169 138.484 95.3109L136.554 103.305L136.555 103.306Z" fill="url(#paint2_linear_501_11643)"/>
<g filter="url(#filter2_d_501_11643)">
<path d="M120.067 96.272H226.205C228.919 96.272 230.952 98.479 230.745 101.2L222.811 206H47.4712C44.1582 206 41.4712 203.314 41.4712 200C41.4712 199.849 41.4772 199.698 41.4892 199.547L49.3082 96.272L49.9542 87.731C50.3662 82.288 55.1012 77.875 60.5282 77.875H111.632C117.059 77.875 121.125 82.288 120.713 87.731L120.067 96.272Z" fill="black"/>
</g>
<path d="M120.067 96.272H226.205C228.919 96.272 230.952 98.479 230.745 101.2L222.811 206H47.4712C44.1582 206 41.4712 203.314 41.4712 200C41.4712 199.849 41.4772 199.698 41.4892 199.547L49.3082 96.272L49.9542 87.731C50.3662 82.288 55.1012 77.875 60.5282 77.875H111.632C117.059 77.875 121.125 82.288 120.713 87.731L120.067 96.272Z" fill="url(#paint3_linear_501_11643)"/>
<path d="M120.067 96.272H226.205C228.919 96.272 230.952 98.479 230.745 101.2L222.811 206H47.4712C44.1582 206 41.4712 203.314 41.4712 200C41.4712 199.849 41.4772 199.698 41.4892 199.547L49.3082 96.272L49.9542 87.731C50.3662 82.288 55.1012 77.875 60.5282 77.875H111.632C117.059 77.875 121.125 82.288 120.713 87.731L120.067 96.272Z" fill="url(#paint4_linear_501_11643)"/>
<path d="M165.335 93.5348C145.577 74.3208 140.065 59.7018 148.8 49.6748C161.902 34.6348 244.358 52.5148 244.358 34.6348C244.358 16.7558 186.661 -13.6372 177.534 9.14276C168.408 31.9228 182.274 65.3268 204.464 65.3268C226.654 65.3268 240.766 53.4368 269.892 62.9988" stroke="#CCCCCC" stroke-linecap="round" stroke-linejoin="round" stroke-dasharray="4 6 4 6"/>
<path d="M275.579 67.911C276.365 67.911 277.001 67.2734 277.001 66.487C277.001 65.7005 276.365 65.063 275.579 65.063C274.794 65.063 274.157 65.7005 274.157 66.487C274.157 67.2734 274.794 67.911 275.579 67.911Z" fill="black"/>
<path d="M276.29 68.1978C276.842 68.1978 277.29 67.75 277.29 67.1978C277.29 66.6455 276.842 66.1978 276.29 66.1978C275.738 66.1978 275.29 66.6455 275.29 67.1978C275.29 67.75 275.738 68.1978 276.29 68.1978Z" fill="black"/>
<defs>
<filter id="filter0_i_501_11643" x="13.9995" y="-8.00049" width="270" height="250" filterUnits="userSpaceOnUse" color-interpolation-filters="sRGB">
<feFlood flood-opacity="0" result="BackgroundImageFix"/>
<feBlend mode="normal" in="SourceGraphic" in2="BackgroundImageFix" result="shape"/>
<feColorMatrix in="SourceAlpha" type="matrix" values="0 0 0 0 0 0 0 0 0 0 0 0 0 0 0 0 0 0 127 0" result="hardAlpha"/>
<feOffset dy="-13"/>
<feGaussianBlur stdDeviation="250"/>
<feComposite in2="hardAlpha" operator="arithmetic" k2="-1" k3="1"/>
<feColorMatrix type="matrix" values="0 0 0 0 0 0 0 0 0 0 0 0 0 0 0 0 0 0 0.02 0"/>
<feBlend mode="normal" in2="shape" result="effect1_innerShadow_501_11643"/>
</filter>
<filter id="filter1_d_501_11643" x="33" y="183" width="205" height="43" filterUnits="userSpaceOnUse" color-interpolation-filters="sRGB">
<feFlood flood-opacity="0" result="BackgroundImageFix"/>
<feColorMatrix in="SourceAlpha" type="matrix" values="0 0 0 0 0 0 0 0 0 0 0 0 0 0 0 0 0 0 127 0" result="hardAlpha"/>
<feOffset dy="2"/>
<feGaussianBlur stdDeviation="4"/>
<feColorMatrix type="matrix" values="0 0 0 0 0 0 0 0 0 0 0 0 0 0 0 0 0 0 0.02 0"/>
<feBlend mode="normal" in2="BackgroundImageFix" result="effect1_dropShadow_501_11643"/>
<feBlend mode="normal" in="SourceGraphic" in2="effect1_dropShadow_501_11643" result="shape"/>
</filter>
<filter id="filter2_d_501_11643" x="41.4712" y="67.875" width="209.289" height="148.125" filterUnits="userSpaceOnUse" color-interpolation-filters="sRGB">
<feFlood flood-opacity="0" result="BackgroundImageFix"/>
<feColorMatrix in="SourceAlpha" type="matrix" values="0 0 0 0 0 0 0 0 0 0 0 0 0 0 0 0 0 0 127 0" result="hardAlpha"/>
<feOffset dx="10"/>
<feGaussianBlur stdDeviation="5"/>
<feColorMatrix type="matrix" values="0 0 0 0 0 0 0 0 0 0 0 0 0 0 0 0 0 0 0.04 0"/>
<feBlend mode="normal" in2="BackgroundImageFix" result="effect1_dropShadow_501_11643"/>
<feBlend mode="normal" in="SourceGraphic" in2="effect1_dropShadow_501_11643" result="shape"/>
</filter>
<linearGradient id="paint0_linear_501_11643" x1="111.761" y1="42.4361" x2="127.027" y2="215.202" gradientUnits="userSpaceOnUse">
<stop stop-color="#FAFAFA"/>
<stop offset="1" stop-color="#F5F5F5"/>
</linearGradient>
<linearGradient id="paint1_linear_501_11643" x1="144.979" y1="153.731" x2="131.982" y2="182.392" gradientUnits="userSpaceOnUse">
<stop stop-color="#784B01"/>
<stop offset="1"/>
</linearGradient>
<linearGradient id="paint2_linear_501_11643" x1="139.714" y1="129.688" x2="124.308" y2="179.516" gradientUnits="userSpaceOnUse">
<stop stop-color="#D38503"/>
<stop offset="1" stop-color="#652F04"/>
</linearGradient>
<linearGradient id="paint3_linear_501_11643" x1="136.115" y1="112.524" x2="87.0776" y2="195.997" gradientUnits="userSpaceOnUse">
<stop stop-color="#F5A623"/>
<stop offset="1" stop-color="#F07E25"/>
</linearGradient>
<linearGradient id="paint4_linear_501_11643" x1="130.719" y1="124.463" x2="61.1821" y2="288.911" gradientUnits="userSpaceOnUse">
<stop stop-color="#F5A623"/>
<stop offset="1" stop-color="#F07E25"/>
</linearGradient>
</defs>
</svg>

<svg xmlns="http://www.w3.org/2000/svg" width="284" height="242" fill="none" viewBox="0 0 284 242"><path fill="url(#a)" d="M213.156 79.046q96.793 0 61.339 35.56c-35.454 35.561-84.21 29.195-72.774 60.154s118.129-2.246 65.748 44.211C215.088 265.43-35.7 235.257 22.782 184.625s67-72.94 41.451-72.94c-25.548 0-78.304-15.196-26.82-64.134C88.893-1.387 210.877-6.501 189.716 23.95c-21.161 30.453-48.027 43.49-21.161 49.293q26.865 5.802 44.6 5.802"/><g filter="url(#b)"><path fill="#E9EAED" d="M213.156 79.046q96.793 0 61.339 35.56c-35.454 35.561-84.21 29.195-72.774 60.154s118.129-2.246 65.748 44.211C215.088 265.43-35.7 235.257 22.782 184.625s67-72.94 41.451-72.94c-25.548 0-78.304-15.196-26.82-64.134C88.893-1.387 210.877-6.501 189.716 23.95c-21.161 30.453-48.027 43.49-21.161 49.293q26.865 5.802 44.6 5.802"/></g><path fill="#F3F3F3" fill-rule="evenodd" d="M40.907 28.116c5.752 9.534-29.07 39.706-37.745 26.159s31.994-35.693 37.745-26.16" clip-rule="evenodd"/><path fill="#F1F1F1" fill-rule="evenodd" d="M252.062 161.111c-.095 26.746-43.208 22.916-44.994 7.065-1.788-15.851 45.089-33.81 44.994-7.065" clip-rule="evenodd"/><g filter="url(#c)"><path fill="#E9EAED" d="M135.5 216c52.191 0 94.5-6.044 94.5-13.5S187.691 189 135.5 189c-52.19 0-94.5 6.044-94.5 13.5S83.31 216 135.5 216"/></g><path fill="url(#d)" fill-rule="evenodd" d="M149.24 127.155h104.806c2.714 0 4.641 1.693 4.305 3.783a3.3 3.3 0 0 1-.281.89L222.811 206l-176.11-3.116c-1.81 0-3.095-1.13-2.87-2.522q.047-.302.186-.594l34.464-72.613 2.917-6.137c1.86-3.912 7.767-7.082 13.195-7.082h51.103c5.428 0 8.32 3.17 6.461 7.082z" clip-rule="evenodd"/><path fill="url(#e)" fill-rule="evenodd" d="M136.555 103.306h109.782a1 1 0 0 1 .972 1.235L222.811 206H53.702c-5.523 0-10-4.477-10-10 0-.79.094-1.579.28-2.347l21.813-90.348 1.93-7.994c1.23-5.094 6.628-9.224 12.055-9.224h51.104c5.428 0 8.83 4.13 7.6 9.224l-1.93 7.994z" clip-rule="evenodd"/><g filter="url(#f)"><path fill="#000" d="M120.067 96.272h106.138c2.714 0 4.747 2.207 4.54 4.928L222.811 206H47.471a6 6 0 0 1-5.982-6.453l7.82-103.275.645-8.541c.412-5.443 5.147-9.856 10.574-9.856h51.104c5.427 0 9.493 4.413 9.081 9.856z"/></g><path fill="url(#g)" d="M120.067 96.272h106.138c2.714 0 4.747 2.207 4.54 4.928L222.811 206H47.471a6 6 0 0 1-5.982-6.453l7.82-103.275.645-8.541c.412-5.443 5.147-9.856 10.574-9.856h51.104c5.427 0 9.493 4.413 9.081 9.856z"/><path fill="url(#h)" d="M120.067 96.272h106.138c2.714 0 4.747 2.207 4.54 4.928L222.811 206H47.471a6 6 0 0 1-5.982-6.453l7.82-103.275.645-8.541c.412-5.443 5.147-9.856 10.574-9.856h51.104c5.427 0 9.493 4.413 9.081 9.856z"/><path stroke="#CCC" stroke-dasharray="4 6 4 6" stroke-linecap="round" stroke-linejoin="round" d="M165.335 93.535q-29.637-28.82-16.535-43.86c13.102-15.04 95.558 2.84 95.558-15.04s-57.697-48.272-66.824-25.492 4.74 56.184 26.93 56.184 36.302-11.89 65.428-2.328"/><path fill="#000" d="M275.579 67.911c.786 0 1.422-.638 1.422-1.424a1.423 1.423 0 1 0-2.844 0c0 .786.637 1.424 1.422 1.424"/><path fill="#000" d="M276.29 68.198a1 1 0 1 0 0-2 1 1 0 0 0 0 2"/><defs><linearGradient id="a" x1="111.761" x2="127.027" y1="42.4361" y2="215.202" gradientUnits="userSpaceOnUse"><stop stop-color="#FAFAFA"/><stop offset="1" stop-color="#F5F5F5"/></linearGradient><linearGradient id="d" x1="144.979" x2="131.982" y1="153.731" y2="182.392" gradientUnits="userSpaceOnUse"><stop stop-color="#784B01"/><stop offset="1"/></linearGradient><linearGradient id="e" x1="139.714" x2="124.308" y1="129.688" y2="179.516" gradientUnits="userSpaceOnUse"><stop stop-color="#D38503"/><stop offset="1" stop-color="#652F04"/></linearGradient><linearGradient id="g" x1="136.115" x2="87.0776" y1="112.524" y2="195.997" gradientUnits="userSpaceOnUse"><stop stop-color="#F5A623"/><stop offset="1" stop-color="#F07E25"/></linearGradient><linearGradient id="h" x1="130.719" x2="61.1821" y1="124.463" y2="288.911" gradientUnits="userSpaceOnUse"><stop stop-color="#F5A623"/><stop offset="1" stop-color="#F07E25"/></linearGradient><filter id="b" width="270" height="250" x="13.9995" y="-8.00049" color-interpolation-filters="sRGB" filterUnits="userSpaceOnUse"><feFlood flood-opacity="0" result="BackgroundImageFix"/><feBlend in="SourceGraphic" in2="BackgroundImageFix" result="shape"/><feColorMatrix in="SourceAlpha" result="hardAlpha" values="0 0 0 0 0 0 0 0 0 0 0 0 0 0 0 0 0 0 127 0"/><feOffset dy="-13"/><feGaussianBlur stdDeviation="250"/><feComposite in2="hardAlpha" k2="-1" k3="1" operator="arithmetic"/><feColorMatrix values="0 0 0 0 0 0 0 0 0 0 0 0 0 0 0 0 0 0 0.02 0"/><feBlend in2="shape" result="effect1_innerShadow_501_11643"/></filter><filter id="c" width="205" height="43" x="33" y="183" color-interpolation-filters="sRGB" filterUnits="userSpaceOnUse"><feFlood flood-opacity="0" result="BackgroundImageFix"/><feColorMatrix in="SourceAlpha" result="hardAlpha" values="0 0 0 0 0 0 0 0 0 0 0 0 0 0 0 0 0 0 127 0"/><feOffset dy="2"/><feGaussianBlur stdDeviation="4"/><feColorMatrix values="0 0 0 0 0 0 0 0 0 0 0 0 0 0 0 0 0 0 0.02 0"/><feBlend in2="BackgroundImageFix" result="effect1_dropShadow_501_11643"/><feBlend in="SourceGraphic" in2="effect1_dropShadow_501_11643" result="shape"/></filter><filter id="f" width="209.289" height="148.125" x="41.4712" y="67.875" color-interpolation-filters="sRGB" filterUnits="userSpaceOnUse"><feFlood flood-opacity="0" result="BackgroundImageFix"/><feColorMatrix in="SourceAlpha" result="hardAlpha" values="0 0 0 0 0 0 0 0 0 0 0 0 0 0 0 0 0 0 127 0"/><feOffset dx="10"/><feGaussianBlur stdDeviation="5"/><feColorMatrix values="0 0 0 0 0 0 0 0 0 0 0 0 0 0 0 0 0 0 0.04 0"/><feBlend in2="BackgroundImageFix" result="effect1_dropShadow_501_11643"/><feBlend in="SourceGraphic" in2="effect1_dropShadow_501_11643" result="shape"/></filter></defs></svg>
